assets/icons/emote/confused-filled.svg

<?xml version="1.0" encoding="UTF-8" standalone="no"?>
<svg
   viewBox="0 0 24 24"
   width="24"
   height="24"
   version="1.1"
   id="svg4"
   sodipodi:docname="confused-filled.svg"
   inkscape:version="1.2 (1:1.2.1+202207142221+cd75a1ee6d)"
   xmlns:inkscape="http://www.inkscape.org/namespaces/inkscape"
   xmlns:sodipodi="http://sodipodi.sourceforge.net/DTD/sodipodi-0.dtd"
   xmlns="http://www.w3.org/2000/svg"
   xmlns:svg="http://www.w3.org/2000/svg"
   xmlns:rdf="http://www.w3.org/1999/02/22-rdf-syntax-ns#"
   xmlns:cc="http://creativecommons.org/ns#"
   xmlns:dc="http://purl.org/dc/elements/1.1/">
  <metadata
     id="metadata10">
    <rdf:RDF>
      <cc:Work
         rdf:about="">
        <dc:format>image/svg+xml</dc:format>
        <dc:type
           rdf:resource="http://purl.org/dc/dcmitype/StillImage" />
      </cc:Work>
    </rdf:RDF>
  </metadata>
  <defs
     id="defs8" />
  <sodipodi:namedview
     pagecolor="#ffffff"
     bordercolor="#666666"
     borderopacity="1"
     objecttolerance="10"
     gridtolerance="10"
     guidetolerance="10"
     inkscape:pageopacity="0"
     inkscape:pageshadow="2"
     inkscape:window-width="1920"
     inkscape:window-height="1016"
     id="namedview6"
     showgrid="true"
     inkscape:zoom="27.5"
     inkscape:cx="5.2727273"
     inkscape:cy="10.309091"
     inkscape:window-x="0"
     inkscape:window-y="0"
     inkscape:window-maximized="1"
     inkscape:current-layer="svg4"
     inkscape:pagecheckerboard="0"
     inkscape:showpageshadow="2"
     inkscape:deskcolor="#d1d1d1">
    <inkscape:grid
       type="xygrid"
       id="grid1418"
       dotted="false" />
    <inkscape:grid
       type="xygrid"
       id="grid1438"
       dotted="true"
       spacingx="0.5"
       spacingy="0.5"
       empspacing="10" />
  </sodipodi:namedview>
  <path
     id="path985"
     style="display:inline;fill:#808080;fill-opacity:1;stroke:none;stroke-width:1"
     d="M 11.953125 2.625 A 9.375 9.375 0 0 0 2.625 12 A 9.375 9.375 0 0 0 12 21.375 A 9.375 9.375 0 0 0 21.375 12 A 9.375 9.375 0 0 0 12 2.625 A 9.375 9.375 0 0 0 11.953125 2.625 z M 8.8359375 7.6054688 C 9.5338486 7.6054688 10.125 8.1966201 10.125 8.8945312 L 10.125 10.105469 C 10.125 10.803379 9.5338486 11.355469 8.8359375 11.355469 C 8.1380264 11.355469 7.5859375 10.803379 7.5859375 10.105469 L 7.5859375 8.8945312 C 7.5859375 8.1966201 8.1380264 7.6054688 8.8359375 7.6054688 z M 15.125 7.625 C 15.822911 7.625 16.375 8.2161514 16.375 8.9140625 L 16.375 10.125 C 16.375 10.82291 15.822911 11.375 15.125 11.375 C 14.427089 11.375 13.875 10.82291 13.875 10.125 L 13.875 8.9140625 C 13.875 8.2161514 14.427089 7.625 15.125 7.625 z M 7 13.875 C 8.6041618 13.875 9.6138186 14.030231 10.345703 14.304688 C 11.077587 14.579144 11.503908 14.996095 11.816406 15.308594 C 12.128906 15.621092 12.327592 15.829146 12.845703 16.023438 C 13.363815 16.217729 14.229173 16.375 15.75 16.375 A 0.625 0.625 0 0 1 16.375 17 A 0.625 0.625 0 0 1 15.75 17.625 C 14.145839 17.625 13.138134 17.46977 12.40625 17.195312 C 11.674366 16.920857 11.246091 16.503904 10.933594 16.191406 C 10.621094 15.878908 10.424361 15.670855 9.90625 15.476562 C 9.3881385 15.282272 8.5208287 15.125 7 15.125 A 0.625 0.625 0 0 1 6.375 14.5 A 0.625 0.625 0 0 1 7 13.875 z " />
</svg>

<svg width="24" height="24" xmlns="http://www.w3.org/2000/svg"><path style="display:inline;fill:gray;fill-opacity:1;stroke:none;stroke-width:1" d="M11.953 2.625A9.375 9.375 0 0 0 2.625 12 9.375 9.375 0 0 0 12 21.375 9.375 9.375 0 0 0 21.375 12 9.375 9.375 0 0 0 12 2.625a9.375 9.375 0 0 0-.047 0zm-3.117 4.98c.698 0 1.289.592 1.289 1.29v1.21c0 .698-.591 1.25-1.29 1.25a1.24 1.24 0 0 1-1.25-1.25v-1.21c0-.698.553-1.29 1.25-1.29zm6.289.02c.698 0 1.25.591 1.25 1.29v1.21a1.24 1.24 0 0 1-1.25 1.25 1.24 1.24 0 0 1-1.25-1.25v-1.21c0-.699.552-1.29 1.25-1.29zM7 13.875c1.604 0 2.614.155 3.346.43.732.274 1.158.691 1.47 1.004.313.312.512.52 1.03.714.518.195 1.383.352 2.904.352a.625.625 0 0 1 .625.625.625.625 0 0 1-.625.625c-1.604 0-2.612-.155-3.344-.43-.732-.274-1.16-.691-1.472-1.004-.313-.312-.51-.52-1.028-.714-.518-.195-1.385-.352-2.906-.352a.625.625 0 0 1-.625-.625.625.625 0 0 1 .625-.625z"/></svg>
